X: 43113
T: Windy Lake, The
R: reel
M: 4/4
K: Gmajor
gedB ABGE|D2dG eGdG|Beed ~g3e|1 dBGB AGED:|2 dBAG EGG2:|
BGdG eGdG|BGAG EG~G2|BGAG dGeg|1 dBGA BAA2:|2 dBAG EGG2:|

